X:1
T:Copyright © 
T:Copyright © 
T:Copyright © 
T:Copyright © 
T:Copyright © 
Z:Copyright ©
%%score [ 1 2 3 4 ]
L:1/8
M:4/4
K:F
V:1 treble nm="SOPRANO" snm="S."
V:2 treble nm="ALTO" snm="A."
V:3 treble-8 transpose=-12 nm="TENOR" snm="T."
V:4 bass nm="BASS" snm="B."
V:1
 d8 | c2 c2 B2 A2 | G4 F2 A2 | A2 G2 A3 G | F2 E2 F2 G2 | E4 D2 A2 | A2 B2 G4 | F4 F2 F2- | %8
 F2 F2 G2 A2 | B4 B2 A2- | A2 G2 G2 F2 | G4 z2 d2 | d2 c2 d2 B2 | A2 A2 c2 B2 | A4 G4 | z8 | z8 | %17
 z2 F2 F2 F2 | G2 G2 F2 F2 | z2 F2 G2 A2 | B3 A G2 B2 | A2 G4 F2 | G4 z4 | z2 G2 A2 A2 | %24
 B3 A G2 B2 | A2 G4 F2 | G4 z2 G2 | G2 F2 G2 A2 | B4 A2 A2 | A2 G2 A4 | A2 D2 E2 G2 | G2 F2 G2 G2 | %32
 z2 A2 B4- | B2 B2 A4- | A4 A4 | z2 A2 A2 B2 | G2 F2 G4 | F4 d4- | d4 c2 c2 | B2 A2 G4 | %40
 F2 A2 A2 G2 | A3 G F2 E2 | F2 G2 E4 | D2 A2 A2 B2 | G4 F4- | F4 z4 | z2 F2 G2 A2 | B3 A G2 F2 | %48
 G3 F GA B2 | A2 G4 F2 | G4 z4 | z4 z2 F2 | G2 A2 B3 A | G2 F2 G3 F | GA B2 A2 G2- | G2 F2 G4- | %56
 G8- | G8- | G8 |] %59
V:2
 F8 | F2 F2 D2 D2- | D2 C2 D4 | z2 D2 D2 C2 | D2 C4 B,2 | A,2 E2 F2 F2- | FE D4 C2 | D4 D2 D2- | %8
 D2 D2 D2 F2 | F2 B,C DE F2 | G2 C2 D2 D2 | z2 G2 G2 F2 | G2 E2 D2 D2 | F2 D2 E2 G2- | G2 F2 G4 | %15
 z8 | z8 | z2 D2 D2 D2 | B,2 C2 D2 D2 | z2 D2 D2 E2 | F3 E D2 F2 | E2 D2 E2 D2 | z2 B,2 B,2 B,2 | %23
 A,2 G,4 F,2 | G,2 D2 D2 F2 | F2 E2 D4 | D4 z2 D2 | D2 D2 D2 F2 | F4 F2 F2 | E2 D2 E4 | %30
 D2 D2 C2 B,2 | A,2 A,2 G,2 G,2 | z2 C2 D4- | D2 D2 F4 | E4 F4 | F4 F2 F2 | E2 D4 C2 | D4 F4- | %38
 F4 F2 F2 | D2 D4 C2 | D4 z2 D2 | D2 C2 D2 C2- | C2 B,2 A,2 E2 | F2 F3 E D2- | D2 C2 D4 | %45
 z2 A,2 B,2 C2 | D3 C B,2 A,2 | G,2 D2 _E2 D2 | z2 B,2 C2 D2 | _E2 E2 D3 C | B,2 C2 D2 A,2 | %51
 B,2 C2 D3 C | B,2 A,2 G,2 D2 | _E2 D2 z2 B,2 | C2 D2 _E2 E2 | D4 D2 D2 | E3 E D2 =B,2 | E4 D4- | %58
 D8 |] %59
V:3
 B8 | A2 A2 G2 F2 | G4 A4 | B4 A4 | z4 z2 d2 | d2 c2 d3 d | c2 B2 B2 G2 | B2 A2 A2 A2- | %8
 A2 A2 B2 c2 | d3 c B2 c2- | cB G2 A4 | G4 z4 | z8 | z8 | z2 d2 d2 B2 | c2 c2 d2 d2 | c2 B2 A4 | %17
 G2 A2 A2 B2 | G2 G2 A2 A2 | z2 A2 B2 c2 | d3 c B2 d2 | c2 B2 A4 | G2 G2 G2 F2 | A2 B2 c4 | %24
 B2 z B B2 d2 | c2 B2 A4 | G4 B4 | B2 A2 B2 c2 | d4 c2 d2 | c2 d4 c2 | d4 z4 | z2 d2 c2 B2 | %32
 A2 A2 G2 G2 | z2 B2 c2 d2- | d2 c2 d4 | z2 d2 d2 d2 | G2 B4 AG | A4 B4- | B4 A2 A2 | G2 F2 G4 | %40
 A4 B4 | A4 z4 | z2 d2 d2 c2 | d3 d c2 B2 | B2 G2 B2 A2 | z2 F2 G2 A2 | B3 A G2 F2 | G2 F2 c2 A2 | %48
 G4 z2 d2 | c3 B A4 | G4 z2 F2 | G2 A2 B3 A | G2 F2 G2 F2 | c2 A2 G4 | z2 d2 c3 B | A4 G2 B2 | %56
 c3 c d2 d2 | c4 =B4- | B8 |] %59
V:4
 B,,8 | F,2 F,2 G,2 D,2 | _E,4 D,4 | z8 | z2 A,2 A,2 G,2 | A,3 G, F,2 D,2 | F,2 G,2 E,4 | %7
 D,4 D,2 D,2- | D,2 D,2 G,2 F,2 | B,3 A, G,2 F,2 | E,4 D,4 | G,4 z4 | z8 | z8 | D,4 G,2 G,2 | %15
 F,2 E,2 D,3 E, | F,2 G,4 F,2 | G,2 D,2 D,2 B,,2 | _E,2 E,2 D,4 | D,4 z4 | z8 | z2 B,,2 C,2 D,2 | %22
 _E,3 E, E,2 D,2 | C,2 B,,2 A,,4 | G,,2 G,2 G,2 D,2 | F,2 G,2 D,4 | G,,4 z2 G,2 | G,2 D,2 G,2 F,2 | %28
 B,,C,D,E, F,2 D,2 | A,2 B,2 A,4 | D,4 z4 | z2 D,2 E,2 G,2 | G,2 F,2 G,2 G,2 | z2 G,2 F,2 D,2 | %34
 A,4 D,4 | D,4 D,2 B,,2 | C,2 D,2 _E,4 | D,4 B,,4- | B,,4 F,2 F,2 | G,2 D,2 _E,4 | D,4 z4 | %41
 z4 z2 A,2 | A,2 G,2 A,3 G, | F,2 D,2 F,2 G,2 | _E,4 D,4- | D,4 z4 | z8 | z2 B,,2 C,2 D,2 | %48
 _E,3 D, C,2 B,,2 | C,2 C,2 D,4 | _E,4 D,4 | z8 | z4 z2 B,,2 | C,2 D,2 _E,3 D, | C,2 B,,2 C,2 C,2 | %55
 D,4 G,,2 G,,2 | C,3 C, =B,,2 B,,2 | C,4 G,,4- | G,,8 |] %59

